images/mail.svg

<svg width="24" height="25" viewBox="0 0 24 25" fill="none" xmlns="http://www.w3.org/2000/svg">
<path d="M16.7999 5H7.1999C4.3199 5 2.3999 6.44 2.3999 9.8V16.52C2.3999 19.88 4.3199 21.32 7.1999 21.32H16.7999C19.6799 21.32 21.5999 19.88 21.5999 16.52V9.8C21.5999 6.44 19.6799 5 16.7999 5ZM17.2511 10.8464L14.2463 13.2464C13.6127 13.7552 12.8063 14.0048 11.9999 14.0048C11.1935 14.0048 10.3775 13.7552 9.7535 13.2464L6.7487 10.8464C6.4415 10.5968 6.3935 10.136 6.6335 9.8288C6.8831 9.5216 7.3343 9.464 7.6415 9.7136L10.6463 12.1136C11.3759 12.6992 12.6143 12.6992 13.3439 12.1136L16.3487 9.7136C16.6559 9.464 17.1167 9.512 17.3567 9.8288C17.6063 10.136 17.5583 10.5968 17.2511 10.8464Z" fill="#2EA844"/>
</svg>

<svg width="24" height="25" fill="none" xmlns="http://www.w3.org/2000/svg"><path d="M16.8 5H7.2C4.32 5 2.4 6.44 2.4 9.8v6.72c0 3.36 1.92 4.8 4.8 4.8h9.6c2.88 0 4.8-1.44 4.8-4.8V9.8c0-3.36-1.92-4.8-4.8-4.8zm.451 5.846l-3.005 2.4c-.633.51-1.44.759-2.246.759s-1.623-.25-2.246-.759l-3.005-2.4a.739.739 0 01-.115-1.017.718.718 0 011.007-.115l3.005 2.4c.73.585 1.968.585 2.698 0l3.005-2.4a.709.709 0 011.008.115.728.728 0 01-.106 1.017z" fill="#2EA844"/></svg>
